src/assets/outline/MicrophoneSlash.svg

<svg width="24" height="24" viewBox="0 0 24 24"  xmlns="http://www.w3.org/2000/svg">
<path d="M7.39 17.59C7.18 17.59 6.96 17.5 6.81 17.32C5.8 16.11 5.25 14.58 5.25 13V8C5.25 4.28 8.28 1.25 12 1.25C15.1 1.25 17.79 3.35 18.55 6.35C18.65 6.75 18.41 7.16 18.01 7.26C17.62 7.36 17.2 7.12 17.1 6.72C16.5 4.38 14.41 2.75 12 2.75C9.11 2.75 6.75 5.1 6.75 8V13C6.75 14.23 7.18 15.42 7.96 16.36C8.23 16.68 8.18 17.15 7.86 17.42C7.73 17.53 7.56 17.59 7.39 17.59Z" />
<path d="M11.9998 19.75C11.1898 19.75 10.3998 19.61 9.65984 19.33C9.26984 19.19 9.06984 18.75 9.21984 18.37C9.35984 17.98 9.79984 17.78 10.1798 17.93C10.7598 18.15 11.3798 18.26 11.9998 18.26C14.8898 18.26 17.2498 15.91 17.2498 13.01V9.97998C17.2498 9.56998 17.5898 9.22998 17.9998 9.22998C18.4098 9.22998 18.7498 9.56998 18.7498 9.97998V13C18.7498 16.72 15.7198 19.75 11.9998 19.75Z" />
<path d="M11.9999 22.75C9.5199 22.75 7.1599 21.82 5.3499 20.13C5.0499 19.85 5.0299 19.37 5.3099 19.07C5.5899 18.77 6.0699 18.75 6.3699 19.03C7.8999 20.46 9.8999 21.24 11.9899 21.24C16.5399 21.24 20.2399 17.54 20.2399 12.99V10.99C20.2399 10.58 20.5799 10.24 20.9899 10.24C21.3999 10.24 21.7399 10.58 21.7399 10.99V12.99C21.7499 18.38 17.3799 22.75 11.9999 22.75Z" />
<path d="M2.49994 22.7399C2.30994 22.7399 2.11994 22.6699 1.96994 22.5199C1.67994 22.2299 1.67994 21.7499 1.96994 21.4599L20.9699 2.45993C21.2599 2.16993 21.7399 2.16993 22.0299 2.45993C22.3199 2.74993 22.3199 3.22993 22.0299 3.51993L3.02994 22.5199C2.87994 22.6699 2.68994 22.7399 2.49994 22.7399Z" />
<path d="M11.5498 6.25001C11.1398 6.25001 10.7998 5.91001 10.7998 5.50001V2.26001C10.7998 1.85001 11.1398 1.51001 11.5498 1.51001C11.9598 1.51001 12.2998 1.85001 12.2998 2.26001V5.50001C12.2998 5.92001 11.9598 6.25001 11.5498 6.25001Z" />
<path d="M8.5 8.25C8.09 8.25 7.75 7.91 7.75 7.5V3.5C7.75 3.09 8.09 2.75 8.5 2.75C8.91 2.75 9.25 3.09 9.25 3.5V7.5C9.25 7.91 8.91 8.25 8.5 8.25Z" />
</svg>

<?xml version="1.0" encoding="UTF-8"?>
<svg width="24" height="24" viewBox="0 0 24 24" xmlns="http://www.w3.org/2000/svg">
 <path d="m7.39 17.59c-0.21 0-0.43-0.09-0.58-0.27-1.01-1.21-1.56-2.74-1.56-4.32v-5c0-3.72 3.03-6.75 6.75-6.75 3.1 0 5.79 2.1 6.55 5.1 0.1 0.4-0.14 0.81-0.54 0.91-0.39 0.1-0.81-0.14-0.91-0.54-0.6-2.34-2.69-3.97-5.1-3.97-2.89 0-5.25 2.35-5.25 5.25v5c0 1.23 0.43 2.42 1.21 3.36 0.27 0.32 0.22 0.79-0.1 1.06-0.13 0.11-0.3 0.17-0.47 0.17z"/>
 <path d="m12 19.75c-0.81 0-1.6-0.14-2.34-0.42-0.39-0.14-0.59-0.58-0.44-0.96 0.14-0.39 0.58-0.59 0.95996-0.44 0.58 0.22 1.2 0.33 1.82 0.33 2.89 0 5.25-2.35 5.25-5.25v-3.03c0-0.41 0.34-0.75 0.75-0.75s0.75 0.34 0.75 0.75v3.02c0 3.72-3.03 6.75-6.75 6.75z"/>
 <path d="m12 22.75c-2.48 0-4.84-0.93-6.65-2.62-0.3-0.28-0.32-0.76-0.04-1.06s0.76-0.32 1.06-0.04c1.53 1.43 3.53 2.21 5.62 2.21 4.55 0 8.25-3.7 8.25-8.25v-2c0-0.41 0.34-0.75 0.75-0.75s0.75 0.34 0.75 0.75v2c0.01 5.39-4.36 9.76-9.74 9.76z"/>
 <path d="m2.4999 22.74c-0.19 0-0.38-0.07-0.53-0.22-0.29-0.29-0.29-0.77 0-1.06l19-19c0.29-0.29 0.77-0.29 1.06 0s0.29 0.77 0 1.06l-19 19c-0.15 0.15-0.34 0.22-0.53 0.22z"/>
 <path d="m11.55 6.25c-0.41 0-0.75-0.34-0.75-0.75v-3.24c0-0.41 0.34-0.75 0.75-0.75s0.75 0.34 0.75 0.75v3.24c0 0.42-0.34 0.75-0.75 0.75z"/>
 <path d="m8.5 8.25c-0.41 0-0.75-0.34-0.75-0.75v-4c0-0.41 0.34-0.75 0.75-0.75s0.75 0.34 0.75 0.75v4c0 0.41-0.34 0.75-0.75 0.75z"/>
</svg>
